X:682
T: "Nachtgruss"
N: Z1363
O: Europa, Mitteleuropa, Deutschland, Nord - Deutschland
R: Kinder - Lied
M: 3/4
L: 1/16
K: Eb
E3E | B6A2G4 | G8
E4 | F4F4F2A2 | A8
G4 | B4G4A4 | B6c2B4 |
B4G4A4 | G8z4 |
F4A2G2A2F2 | G3AB4z4 |
F4A2G2A2F2 | G3AB4z4 |
B4B4G2G2 | B4e2G2
c2B2 | B4A2G2A2F2 | E8

@@@ Tune index: 10440
